X: 2136
T: Polonäs, sexdregasamlingen del 2 nr 67
B: Sexdregasamlingen del 2 nr 67
S: efter Anders Larsson
O: Sexdrega, Västergötland
R: Slängpolska
Z: 2011-11-16 av Nils L
M: 3/4
L: 1/16
K: D
d2f2 e2g2 f2a2 | a2g2 g2f2 f2e2 | d2f2 e2g2 f2a2 | a2g2 g2f2 f2e2 | F2d2 E2c2 d2f2 | e2dc d4 D4 :: 
DEFG A2A2 A2d2 | A2G2 F2E2 F2D2 | DEFG A2A2 A2d2 | A2G2 F2E2 F2D2 | F2d2 E2c2 d2f2 | e2dc d4 D4 :|
(:musicend:)
(:music:)
